X:1375
T:Denty Davy
A:Wyresdale, Lancashire
B:E and J Winder, 1835-41
L:1/8
M:C|
O:England
Z:Richard Robinson 
%%TUNEURL: http://www.leeds.ac.uk/music/Info/RRTuneBk/gettune/00001213.html
%%ID:00001213
K:D min
f2 | cAGF GAD2 | FAAc DFFA | f2 cAGF GA D2| fdec d2f2 ::
fafa faaf | egeg egge | fafa faaf | fdec d2f2 ::
